X:1
T:Title
%%score { ( 1 3 ) | ( 2 4 5 ) }
L:1/8
M:3/4
K:G
V:1 treble nm="Grand Piano"
V:3 treble 
V:2 bass 
V:4 bass 
V:5 bass 
V:1
 z2 z2[Q:1/4=100] B>A | G3 [^DF] (3[E-A]E[G,CE] | [G,CE]2 [G,B,D]2 G>A | [DB]4 [DA]>[DB] | %4
 [Fc]4[K:bass][K:treble] z2 | G3 [^DF] (3[E-A][EG]E | [CE]2 [B,D]2 [DG]>[EA] | B4 z2 | %8
[M:2/4] [B,G]4 |[M:1/4] d>d |[M:3/4] [Fd]4 z2 | d2 B2 B>B | [^DB]4[K:bass][K:treble] z2 | %13
 B2 G2 [G^c]>[Gc] | [Fd]4 z2 | F4 D>E | FF F2 [^CE]2 | D4 d>d | z2 d2 z2 | d2 d2 [G,DG]>[EA] | %20
[M:7/8] [DB][GB] [Fd]3 F2 |[M:2/4] G4 |] %22
V:2
 z2 z2 [G,D]>[G,CD] | [G,B,D]3 [B,,A,] (3[C,G,]-[C,G,G]C, | G,,2 G,,2 B,>C | G,>G, G,2 F,>G, | %4
 [D,A,]2 D,2[K:treble] [G,DG]>[G,CD] | [G,B,D]3 [B,,A,] (3:2:2[C,G,]2 [C,G,C] | %6
 [G,,G,]2 [G,,G,]2 [B,,G,]>[C,G,] | [G,D]2 B,2 z[K:treble] C |[M:2/4] G,4 |[M:1/4] F>F | %10
[M:3/4][K:bass] [D,A,]>D, D,D,[K:treble] [G,DG][A,DF] | [B,DG]2 [G,D]2 ^D>D | %12
 [B,,F,]>B,, B,,B,, [E,B,E][F,B,^D] | [G,B,E]2 [E,B,E]2 [E,A,]>[E,A,] | %14
 A,2 z [G,DG] [F,A,D][E,A,^C] | [D,A,D]4 [F,A,]>[G,B,D] | [A,D][A,D] [A,D]2 [A,,G,]2 | %17
 [D,F,]4 [D,F,D]>[E,G,D] | z2[K:treble] D2 z2 | G2 G2[K:bass] B,,>[C,G,] | %20
[M:7/8] [D,G,][C,B,] [D,A,]3 [D,CD]2 |[M:2/4] [G,B,D]4 |] %22
V:3
 x6 | x6 | x6 | x6 | z z/[K:bass] D,/ D2[K:treble] B>A | x6 | x6 | z2 G2 .[DFA]2 |[M:2/4] x4 | %9
[M:1/4] x2 |[M:3/4] z z/ A,/ A,[DFc] Bc | x6 | z z/[K:bass] F,/ F,[K:treble][B,^DA] GA | x6 | %14
 z2 DB AG | x6 | x6 | x6 | d2 z B, d>d | x6 |[M:7/8] x7 |[M:2/4] x4 |] %22
V:4
 x6 | x6 | x6 | x6 | x4[K:treble] x2 | x6 | x6 | D,4 D,2[K:treble] |[M:2/4] x4 |[M:1/4] x2 | %10
[M:3/4][K:bass] x4[K:treble] x2 | x6 | x6 | x6 | D,4 z2 | x6 | x6 | x6 | %18
 D2[K:treble] z G, [A,CF]>[A,CF] | [G,B,]4[K:bass] z2 |[M:7/8] x7 |[M:2/4] x4 |] %22
V:5
 x6 | x6 | x6 | x6 | x4[K:treble] x2 | x6 | x6 | x5[K:treble] x |[M:2/4] x4 |[M:1/4] x2 | %10
[M:3/4][K:bass] x4[K:treble] x2 | x6 | x6 | x6 | x6 | x6 | x6 | x6 | [F,A,]4[K:treble] z2 | %19
 x4[K:bass] x2 |[M:7/8] x7 |[M:2/4] x4 |] %22

